X:1
T:The Sons of Liberty (2)
M:2/2
L:1/4
K:D
 z2 z D/2F/2| A F E D| F A A F/2E/2| D B, D E| D3(3A3.99999962500005/11.9999985000002A3.99999962500005/11.9999985000002B3.99999962500005/11.9999985000002A3.99999962500005/11.9999985000002B3.99999962500005/11.9999985000002c3.99999962500005/11.9999985000002|\
 dd/2-c/2 c F| F- EE/2-F/2 A| B- A BA/2-F/2| E3(3A3.99999962500005/11.9999985000002A3.99999962500005/11.9999985000002B3.99999962500005/11.9999985000002A3.99999962500005/11.9999985000002B3.99999962500005/11.9999985000002c3.99999962500005/11.9999985000002|\
 dd/2-c/2 d F| F ED/2-E/2 F| AB/2-A/2 BA/2-F/2| E3E/2-D/2| A A B A|\
 F E2 F/2E/2| D B, D E| D3 z|

